slides/3dt/images/pose-projection-obs.svg

<?xml version="1.0" encoding="UTF-8" standalone="no"?>
<!-- Created with matplotlib (http://matplotlib.org/) -->

<svg
   xmlns:dc="http://purl.org/dc/elements/1.1/"
   xmlns:cc="http://creativecommons.org/ns#"
   xmlns:rdf="http://www.w3.org/1999/02/22-rdf-syntax-ns#"
   xmlns:svg="http://www.w3.org/2000/svg"
   xmlns="http://www.w3.org/2000/svg"
   xmlns:xlink="http://www.w3.org/1999/xlink"
   xmlns:sodipodi="http://sodipodi.sourceforge.net/DTD/sodipodi-0.dtd"
   xmlns:inkscape="http://www.inkscape.org/namespaces/inkscape"
   height="173.8pt"
   version="1.1"
   viewBox="0 0 168.39999 173.8"
   width="168.39999pt"
   id="svg2"
   inkscape:version="0.91 r"
   sodipodi:docname="pose-projection-obs.svg">
  <metadata
     id="metadata135">
    <rdf:RDF>
      <cc:Work
         rdf:about="">
        <dc:format>image/svg+xml</dc:format>
        <dc:type
           rdf:resource="http://purl.org/dc/dcmitype/StillImage" />
        <dc:title></dc:title>
      </cc:Work>
    </rdf:RDF>
  </metadata>
  <sodipodi:namedview
     pagecolor="#ffffff"
     bordercolor="#666666"
     borderopacity="1"
     objecttolerance="10"
     gridtolerance="10"
     guidetolerance="10"
     inkscape:pageopacity="0"
     inkscape:pageshadow="2"
     inkscape:window-width="715"
     inkscape:window-height="480"
     id="namedview133"
     showgrid="false"
     fit-margin-top="0"
     fit-margin-left="0"
     fit-margin-right="0"
     fit-margin-bottom="0"
     inkscape:zoom="0.87407407"
     inkscape:cx="101.875"
     inkscape:cy="108.625"
     inkscape:window-x="0"
     inkscape:window-y="28"
     inkscape:window-maximized="0"
     inkscape:current-layer="figure_1" />
  <defs
     id="defs4"
     style="stroke-linecap:butt;stroke-linejoin:round">
    <style
       type="text/css"
       id="style6">
*{stroke-linecap:butt;stroke-linejoin:round;}
  </style>
  </defs>
  <g
     id="figure_1"
     style="stroke-linecap:butt;stroke-linejoin:round"
     transform="translate(-26.5,-21.1)">
    <g
       id="axes_1"
       style="stroke-linecap:butt;stroke-linejoin:round">
      <g
         id="patch_2"
         style="stroke-linecap:butt;stroke-linejoin:round">
        <path
           d="m 27,194.4 167.4,0 0,-172.8 -167.4,0 z"
           style="fill:#ffffff;stroke-linecap:butt;stroke-linejoin:round"
           id="path14"
           inkscape:connector-curvature="0" />
      </g>
      <g
         id="line2d_1"
         style="stroke-linecap:butt;stroke-linejoin:round">
        <path
           clip-path="url(#p4c72f1c596)"
           d="m 123.235,88.0958 2.206,-25.939"
           style="fill:none;stroke:#000000;stroke-width:2;stroke-linecap:square;stroke-linejoin:round"
           id="path17"
           inkscape:connector-curvature="0" />
      </g>
      <g
         id="line2d_2"
         style="stroke-linecap:butt;stroke-linejoin:round">
        <path
           clip-path="url(#p4c72f1c596)"
           d="m 125.441,62.1568 -4.039,-6.9801"
           style="fill:none;stroke:#000000;stroke-width:2;stroke-linecap:square;stroke-linejoin:round"
           id="path20"
           inkscape:connector-curvature="0" />
      </g>
      <g
         id="line2d_3"
         style="stroke-linecap:butt;stroke-linejoin:round">
        <path
           clip-path="url(#p4c72f1c596)"
           d="m 125.441,62.1568 13.465,2.3766"
           style="fill:none;stroke:#000000;stroke-width:2;stroke-linecap:square;stroke-linejoin:round"
           id="path23"
           inkscape:connector-curvature="0" />
      </g>
      <g
         id="line2d_4"
         style="stroke-linecap:butt;stroke-linejoin:round">
        <path
           clip-path="url(#p4c72f1c596)"
           d="m 138.906,64.5334 12.006,22.7498"
           style="fill:none;stroke:#000000;stroke-width:2;stroke-linecap:square;stroke-linejoin:round"
           id="path26"
           inkscape:connector-curvature="0" />
      </g>
      <g
         id="line2d_5"
         style="stroke-linecap:butt;stroke-linejoin:round">
        <path
           clip-path="url(#p4c72f1c596)"
           d="m 150.912,87.2832 0.537,19.5938"
           style="fill:none;stroke:#000000;stroke-width:2;stroke-linecap:square;stroke-linejoin:round"
           id="path29"
           inkscape:connector-curvature="0" />
      </g>
      <g
         id="line2d_6"
         style="stroke-linecap:butt;stroke-linejoin:round">
        <path
           clip-path="url(#p4c72f1c596)"
           d="m 151.449,106.877 -4.011,5.991"
           style="fill:none;stroke:#000000;stroke-width:2;stroke-linecap:square;stroke-linejoin:round"
           id="path32"
           inkscape:connector-curvature="0" />
      </g>
      <g
         id="line2d_7"
         style="stroke-linecap:butt;stroke-linejoin:round">
        <path
           clip-path="url(#p4c72f1c596)"
           d="m 125.441,62.1568 -17.16,0.2116"
           style="fill:none;stroke:#000000;stroke-width:2;stroke-linecap:square;stroke-linejoin:round"
           id="path35"
           inkscape:connector-curvature="0" />
      </g>
      <g
         id="line2d_8"
         style="stroke-linecap:butt;stroke-linejoin:round">
        <path
           clip-path="url(#p4c72f1c596)"
           d="M 108.281,62.3684 95.6616,86.4493"
           style="fill:none;stroke:#000000;stroke-width:2;stroke-linecap:square;stroke-linejoin:round"
           id="path38"
           inkscape:connector-curvature="0" />
      </g>
      <g
         id="line2d_9"
         style="stroke-linecap:butt;stroke-linejoin:round">
        <path
           clip-path="url(#p4c72f1c596)"
           d="m 95.6616,86.4493 9.3804,-0.8737"
           style="fill:none;stroke:#000000;stroke-width:2;stroke-linecap:square;stroke-linejoin:round"
           id="path41"
           inkscape:connector-curvature="0" />
      </g>
      <g
         id="line2d_10"
         style="stroke-linecap:butt;stroke-linejoin:round">
        <path
           clip-path="url(#p4c72f1c596)"
           d="m 105.042,85.5756 1.845,-0.4148"
           style="fill:none;stroke:#000000;stroke-width:2;stroke-linecap:square;stroke-linejoin:round"
           id="path44"
           inkscape:connector-curvature="0" />
      </g>
      <g
         id="line2d_11"
         style="stroke-linecap:butt;stroke-linejoin:round">
        <path
           clip-path="url(#p4c72f1c596)"
           d="m 123.235,88.0958 4.82,13.3082"
           style="fill:none;stroke:#000000;stroke-width:2;stroke-linecap:square;stroke-linejoin:round"
           id="path47"
           inkscape:connector-curvature="0" />
      </g>
      <g
         id="line2d_12"
         style="stroke-linecap:butt;stroke-linejoin:round">
        <path
           clip-path="url(#p4c72f1c596)"
           d="m 128.055,101.404 -0.51,37.307"
           style="fill:none;stroke:#000000;stroke-width:2;stroke-linecap:square;stroke-linejoin:round"
           id="path50"
           inkscape:connector-curvature="0" />
      </g>
      <g
         id="line2d_13"
         style="stroke-linecap:butt;stroke-linejoin:round">
        <path
           clip-path="url(#p4c72f1c596)"
           d="m 127.545,138.711 0.071,34.807"
           style="fill:none;stroke:#000000;stroke-width:2;stroke-linecap:square;stroke-linejoin:round"
           id="path53"
           inkscape:connector-curvature="0" />
      </g>
      <g
         id="line2d_14"
         style="stroke-linecap:butt;stroke-linejoin:round">
        <path
           clip-path="url(#p4c72f1c596)"
           d="m 127.616,173.518 0.147,4.625"
           style="fill:none;stroke:#000000;stroke-width:2;stroke-linecap:square;stroke-linejoin:round"
           id="path56"
           inkscape:connector-curvature="0" />
      </g>
      <g
         id="line2d_15"
         style="stroke-linecap:butt;stroke-linejoin:round">
        <path
           clip-path="url(#p4c72f1c596)"
           d="M 123.235,88.0958 110.982,98.1722"
           style="fill:none;stroke:#000000;stroke-width:2;stroke-linecap:square;stroke-linejoin:round"
           id="path59"
           inkscape:connector-curvature="0" />
      </g>
      <g
         id="line2d_16"
         style="stroke-linecap:butt;stroke-linejoin:round">
        <path
           clip-path="url(#p4c72f1c596)"
           d="M 110.982,98.1722 97.6609,131.57"
           style="fill:none;stroke:#000000;stroke-width:2;stroke-linecap:square;stroke-linejoin:round"
           id="path62"
           inkscape:connector-curvature="0" />
      </g>
      <g
         id="line2d_17"
         style="stroke-linecap:butt;stroke-linejoin:round">
        <path
           clip-path="url(#p4c72f1c596)"
           d="m 97.6609,131.57 -11.056,33.897"
           style="fill:none;stroke:#000000;stroke-width:2;stroke-linecap:square;stroke-linejoin:round"
           id="path65"
           inkscape:connector-curvature="0" />
      </g>
      <g
         id="line2d_18"
         style="stroke-linecap:butt;stroke-linejoin:round">
        <path
           clip-path="url(#p4c72f1c596)"
           d="m 86.6049,165.467 -9.4984,3.778"
           style="fill:none;stroke:#000000;stroke-width:2;stroke-linecap:square;stroke-linejoin:round"
           id="path68"
           inkscape:connector-curvature="0" />
      </g>
      <g
         id="line2d_19"
         style="stroke-linecap:butt;stroke-linejoin:round">
        <defs
           id="defs71">
          <path
             d="M 0,3 C 0.795609,3 1.55874,2.6839 2.12132,2.12132 2.6839,1.55874 3,0.795609 3,0 3,-0.795609 2.6839,-1.55874 2.12132,-2.12132 1.55874,-2.6839 0.795609,-3 0,-3 -0.795609,-3 -1.55874,-2.6839 -2.12132,-2.12132 -2.6839,-1.55874 -3,-0.795609 -3,0 -3,0.795609 -2.6839,1.55874 -2.12132,2.12132 -1.55874,2.6839 -0.795609,3 0,3 Z"
             id="m8b0675cc3b"
             style="stroke:#000000;stroke-width:0.5;stroke-linecap:butt;stroke-linejoin:round"
             inkscape:connector-curvature="0" />
        </defs>
        <g
           clip-path="url(#p4c72f1c596)"
           id="g74"
           style="stroke-linecap:butt;stroke-linejoin:round">
          <use
             style="stroke:#000000;stroke-width:0.5;stroke-linecap:butt;stroke-linejoin:round"
             x="123.235"
             xlink:href="#m8b0675cc3b"
             y="88.09581"
             id="use76"
             width="100%"
             height="100%" />
          <use
             style="stroke:#000000;stroke-width:0.5;stroke-linecap:butt;stroke-linejoin:round"
             x="125.44122"
             xlink:href="#m8b0675cc3b"
             y="62.156769"
             id="use78"
             width="100%"
             height="100%" />
          <use
             style="stroke:#000000;stroke-width:0.5;stroke-linecap:butt;stroke-linejoin:round"
             x="121.40186"
             xlink:href="#m8b0675cc3b"
             y="55.176655"
             id="use80"
             width="100%"
             height="100%" />
          <use
             style="stroke:#000000;stroke-width:0.5;stroke-linecap:butt;stroke-linejoin:round"
             x="138.90594"
             xlink:href="#m8b0675cc3b"
             y="64.533432"
             id="use82"
             width="100%"
             height="100%" />
          <use
             style="stroke:#000000;stroke-width:0.5;stroke-linecap:butt;stroke-linejoin:round"
             x="150.91162"
             xlink:href="#m8b0675cc3b"
             y="87.283173"
             id="use84"
             width="100%"
             height="100%" />
          <use
             style="stroke:#000000;stroke-width:0.5;stroke-linecap:butt;stroke-linejoin:round"
             x="151.44884"
             xlink:href="#m8b0675cc3b"
             y="106.8771"
             id="use86"
             width="100%"
             height="100%" />
          <use
             style="stroke:#000000;stroke-width:0.5;stroke-linecap:butt;stroke-linejoin:round"
             x="147.43813"
             xlink:href="#m8b0675cc3b"
             y="112.86777"
             id="use88"
             width="100%"
             height="100%" />
          <use
             style="stroke:#000000;stroke-width:0.5;stroke-linecap:butt;stroke-linejoin:round"
             x="108.28075"
             xlink:href="#m8b0675cc3b"
             y="62.368446"
             id="use90"
             width="100%"
             height="100%" />
          <use
             style="stroke:#000000;stroke-width:0.5;stroke-linecap:butt;stroke-linejoin:round"
             x="95.661598"
             xlink:href="#m8b0675cc3b"
             y="86.449318"
             id="use92"
             width="100%"
             height="100%" />
          <use
             style="stroke:#000000;stroke-width:0.5;stroke-linecap:butt;stroke-linejoin:round"
             x="105.04195"
             xlink:href="#m8b0675cc3b"
             y="85.575562"
             id="use94"
             width="100%"
             height="100%" />
          <use
             style="stroke:#000000;stroke-width:0.5;stroke-linecap:butt;stroke-linejoin:round"
             x="106.88685"
             xlink:href="#m8b0675cc3b"
             y="85.160774"
             id="use96"
             width="100%"
             height="100%" />
          <use
             style="stroke:#000000;stroke-width:0.5;stroke-linecap:butt;stroke-linejoin:round"
             x="128.05534"
             xlink:href="#m8b0675cc3b"
             y="101.40403"
             id="use98"
             width="100%"
             height="100%" />
          <use
             style="stroke:#000000;stroke-width:0.5;stroke-linecap:butt;stroke-linejoin:round"
             x="127.54477"
             xlink:href="#m8b0675cc3b"
             y="138.71141"
             id="use100"
             width="100%"
             height="100%" />
          <use
             style="stroke:#000000;stroke-width:0.5;stroke-linecap:butt;stroke-linejoin:round"
             x="127.6155"
             xlink:href="#m8b0675cc3b"
             y="173.51834"
             id="use102"
             width="100%"
             height="100%" />
          <use
             style="stroke:#000000;stroke-width:0.5;stroke-linecap:butt;stroke-linejoin:round"
             x="127.76302"
             xlink:href="#m8b0675cc3b"
             y="178.14348"
             id="use104"
             width="100%"
             height="100%" />
          <use
             style="stroke:#000000;stroke-width:0.5;stroke-linecap:butt;stroke-linejoin:round"
             x="110.98228"
             xlink:href="#m8b0675cc3b"
             y="98.172173"
             id="use106"
             width="100%"
             height="100%" />
          <use
             style="stroke:#000000;stroke-width:0.5;stroke-linecap:butt;stroke-linejoin:round"
             x="97.660927"
             xlink:href="#m8b0675cc3b"
             y="131.56955"
             id="use108"
             width="100%"
             height="100%" />
          <use
             style="stroke:#000000;stroke-width:0.5;stroke-linecap:butt;stroke-linejoin:round"
             x="86.604897"
             xlink:href="#m8b0675cc3b"
             y="165.46678"
             id="use110"
             width="100%"
             height="100%" />
          <use
             style="stroke:#000000;stroke-width:0.5;stroke-linecap:butt;stroke-linejoin:round"
             x="77.106491"
             xlink:href="#m8b0675cc3b"
             y="169.24483"
             id="use112"
             width="100%"
             height="100%" />
        </g>
      </g>
      <g
         id="patch_3"
         style="stroke-linecap:butt;stroke-linejoin:round">
        <path
           d="m 27,21.6 167.4,0"
           style="fill:none;stroke:#000000;stroke-linecap:square;stroke-linejoin:miter"
           id="path115"
           inkscape:connector-curvature="0" />
      </g>
      <g
         id="patch_4"
         style="stroke-linecap:butt;stroke-linejoin:round">
        <path
           d="m 194.4,194.4 0,-172.8"
           style="fill:none;stroke:#000000;stroke-linecap:square;stroke-linejoin:miter"
           id="path118"
           inkscape:connector-curvature="0" />
      </g>
      <g
         id="patch_5"
         style="stroke-linecap:butt;stroke-linejoin:round">
        <path
           d="m 27,194.4 167.4,0"
           style="fill:none;stroke:#000000;stroke-linecap:square;stroke-linejoin:miter"
           id="path121"
           inkscape:connector-curvature="0" />
      </g>
      <g
         id="patch_6"
         style="stroke-linecap:butt;stroke-linejoin:round">
        <path
           d="M 27,194.4 27,21.6"
           style="fill:none;stroke:#000000;stroke-linecap:square;stroke-linejoin:miter"
           id="path124"
           inkscape:connector-curvature="0" />
      </g>
      <g
         id="matplotlib.axis_1"
         style="stroke-linecap:butt;stroke-linejoin:round" />
      <g
         id="matplotlib.axis_2"
         style="stroke-linecap:butt;stroke-linejoin:round" />
    </g>
  </g>
  <defs
     id="defs128">
    <clipPath
       id="p4c72f1c596"
       style="stroke-linecap:butt;stroke-linejoin:round">
      <rect
         height="172.8"
         width="167.39999"
         x="27"
         y="21.6"
         id="rect131"
         style="stroke-linecap:butt;stroke-linejoin:round" />
    </clipPath>
  </defs>
</svg>

<?xml version="1.0" encoding="utf-8" standalone="no"?>
<!DOCTYPE svg PUBLIC "-//W3C//DTD SVG 1.1//EN"
  "http://www.w3.org/Graphics/SVG/1.1/DTD/svg11.dtd">
<!-- Created with matplotlib (http://matplotlib.org/) -->
<svg height="216pt" version="1.1" viewBox="0 0 216 216" width="216pt" xmlns="http://www.w3.org/2000/svg" xmlns:xlink="http://www.w3.org/1999/xlink">
 <defs>
  <style type="text/css">
*{stroke-linecap:butt;stroke-linejoin:round;}
  </style>
 </defs>
 <g id="figure_1">
  <g id="patch_1">
   <path d="
M0 216
L216 216
L216 0
L0 0
L0 216" style="fill:none;opacity:0;"/>
  </g>
  <g id="axes_1">
   <g id="patch_2">
    <path d="
M27 194.4
L194.4 194.4
L194.4 21.6
L27 21.6
z
" style="fill:#ffffff;"/>
   </g>
   <g id="line2d_1">
    <path clip-path="url(#p4c72f1c596)" d="
M123.235 88.0958
L125.441 62.1568" style="fill:none;stroke:#000000;stroke-linecap:square;stroke-width:2;"/>
   </g>
   <g id="line2d_2">
    <path clip-path="url(#p4c72f1c596)" d="
M125.441 62.1568
L121.402 55.1767" style="fill:none;stroke:#000000;stroke-linecap:square;stroke-width:2;"/>
   </g>
   <g id="line2d_3">
    <path clip-path="url(#p4c72f1c596)" d="
M125.441 62.1568
L138.906 64.5334" style="fill:none;stroke:#000000;stroke-linecap:square;stroke-width:2;"/>
   </g>
   <g id="line2d_4">
    <path clip-path="url(#p4c72f1c596)" d="
M138.906 64.5334
L150.912 87.2832" style="fill:none;stroke:#000000;stroke-linecap:square;stroke-width:2;"/>
   </g>
   <g id="line2d_5">
    <path clip-path="url(#p4c72f1c596)" d="
M150.912 87.2832
L151.449 106.877" style="fill:none;stroke:#000000;stroke-linecap:square;stroke-width:2;"/>
   </g>
   <g id="line2d_6">
    <path clip-path="url(#p4c72f1c596)" d="
M151.449 106.877
L147.438 112.868" style="fill:none;stroke:#000000;stroke-linecap:square;stroke-width:2;"/>
   </g>
   <g id="line2d_7">
    <path clip-path="url(#p4c72f1c596)" d="
M125.441 62.1568
L108.281 62.3684" style="fill:none;stroke:#000000;stroke-linecap:square;stroke-width:2;"/>
   </g>
   <g id="line2d_8">
    <path clip-path="url(#p4c72f1c596)" d="
M108.281 62.3684
L95.6616 86.4493" style="fill:none;stroke:#000000;stroke-linecap:square;stroke-width:2;"/>
   </g>
   <g id="line2d_9">
    <path clip-path="url(#p4c72f1c596)" d="
M95.6616 86.4493
L105.042 85.5756" style="fill:none;stroke:#000000;stroke-linecap:square;stroke-width:2;"/>
   </g>
   <g id="line2d_10">
    <path clip-path="url(#p4c72f1c596)" d="
M105.042 85.5756
L106.887 85.1608" style="fill:none;stroke:#000000;stroke-linecap:square;stroke-width:2;"/>
   </g>
   <g id="line2d_11">
    <path clip-path="url(#p4c72f1c596)" d="
M123.235 88.0958
L128.055 101.404" style="fill:none;stroke:#000000;stroke-linecap:square;stroke-width:2;"/>
   </g>
   <g id="line2d_12">
    <path clip-path="url(#p4c72f1c596)" d="
M128.055 101.404
L127.545 138.711" style="fill:none;stroke:#000000;stroke-linecap:square;stroke-width:2;"/>
   </g>
   <g id="line2d_13">
    <path clip-path="url(#p4c72f1c596)" d="
M127.545 138.711
L127.616 173.518" style="fill:none;stroke:#000000;stroke-linecap:square;stroke-width:2;"/>
   </g>
   <g id="line2d_14">
    <path clip-path="url(#p4c72f1c596)" d="
M127.616 173.518
L127.763 178.143" style="fill:none;stroke:#000000;stroke-linecap:square;stroke-width:2;"/>
   </g>
   <g id="line2d_15">
    <path clip-path="url(#p4c72f1c596)" d="
M123.235 88.0958
L110.982 98.1722" style="fill:none;stroke:#000000;stroke-linecap:square;stroke-width:2;"/>
   </g>
   <g id="line2d_16">
    <path clip-path="url(#p4c72f1c596)" d="
M110.982 98.1722
L97.6609 131.57" style="fill:none;stroke:#000000;stroke-linecap:square;stroke-width:2;"/>
   </g>
   <g id="line2d_17">
    <path clip-path="url(#p4c72f1c596)" d="
M97.6609 131.57
L86.6049 165.467" style="fill:none;stroke:#000000;stroke-linecap:square;stroke-width:2;"/>
   </g>
   <g id="line2d_18">
    <path clip-path="url(#p4c72f1c596)" d="
M86.6049 165.467
L77.1065 169.245" style="fill:none;stroke:#000000;stroke-linecap:square;stroke-width:2;"/>
   </g>
   <g id="line2d_19">
    <defs>
     <path d="
M0 3
C0.795609 3 1.55874 2.6839 2.12132 2.12132
C2.6839 1.55874 3 0.795609 3 0
C3 -0.795609 2.6839 -1.55874 2.12132 -2.12132
C1.55874 -2.6839 0.795609 -3 0 -3
C-0.795609 -3 -1.55874 -2.6839 -2.12132 -2.12132
C-2.6839 -1.55874 -3 -0.795609 -3 0
C-3 0.795609 -2.6839 1.55874 -2.12132 2.12132
C-1.55874 2.6839 -0.795609 3 0 3
z
" id="m8b0675cc3b" style="stroke:#000000;stroke-width:0.5;"/>
    </defs>
    <g clip-path="url(#p4c72f1c596)">
     <use style="stroke:#000000;stroke-width:0.5;" x="123.234997934" xlink:href="#m8b0675cc3b" y="88.095812926"/>
     <use style="stroke:#000000;stroke-width:0.5;" x="125.441225256" xlink:href="#m8b0675cc3b" y="62.1567706727"/>
     <use style="stroke:#000000;stroke-width:0.5;" x="121.401860471" xlink:href="#m8b0675cc3b" y="55.1766543462"/>
     <use style="stroke:#000000;stroke-width:0.5;" x="138.905945185" xlink:href="#m8b0675cc3b" y="64.5334333096"/>
     <use style="stroke:#000000;stroke-width:0.5;" x="150.911620553" xlink:href="#m8b0675cc3b" y="87.2831739073"/>
     <use style="stroke:#000000;stroke-width:0.5;" x="151.448842063" xlink:href="#m8b0675cc3b" y="106.877094948"/>
     <use style="stroke:#000000;stroke-width:0.5;" x="147.438118332" xlink:href="#m8b0675cc3b" y="112.86776428"/>
     <use style="stroke:#000000;stroke-width:0.5;" x="108.280756659" xlink:href="#m8b0675cc3b" y="62.3684461507"/>
     <use style="stroke:#000000;stroke-width:0.5;" x="95.6615991837" xlink:href="#m8b0675cc3b" y="86.4493210579"/>
     <use style="stroke:#000000;stroke-width:0.5;" x="105.041955956" xlink:href="#m8b0675cc3b" y="85.575560673"/>
     <use style="stroke:#000000;stroke-width:0.5;" x="106.886847626" xlink:href="#m8b0675cc3b" y="85.160773577"/>
     <use style="stroke:#000000;stroke-width:0.5;" x="128.055337424" xlink:href="#m8b0675cc3b" y="101.404029978"/>
     <use style="stroke:#000000;stroke-width:0.5;" x="127.544766051" xlink:href="#m8b0675cc3b" y="138.71140599"/>
     <use style="stroke:#000000;stroke-width:0.5;" x="127.615504136" xlink:href="#m8b0675cc3b" y="173.518334947"/>
     <use style="stroke:#000000;stroke-width:0.5;" x="127.763018809" xlink:href="#m8b0675cc3b" y="178.143473544"/>
     <use style="stroke:#000000;stroke-width:0.5;" x="110.982285145" xlink:href="#m8b0675cc3b" y="98.1721689818"/>
     <use style="stroke:#000000;stroke-width:0.5;" x="97.6609238629" xlink:href="#m8b0675cc3b" y="131.569547895"/>
     <use style="stroke:#000000;stroke-width:0.5;" x="86.6048932671" xlink:href="#m8b0675cc3b" y="165.466776984"/>
     <use style="stroke:#000000;stroke-width:0.5;" x="77.1064912166" xlink:href="#m8b0675cc3b" y="169.24483438"/>
    </g>
   </g>
   <g id="patch_3">
    <path d="
M27 21.6
L194.4 21.6" style="fill:none;stroke:#000000;stroke-linecap:square;stroke-linejoin:miter;"/>
   </g>
   <g id="patch_4">
    <path d="
M194.4 194.4
L194.4 21.6" style="fill:none;stroke:#000000;stroke-linecap:square;stroke-linejoin:miter;"/>
   </g>
   <g id="patch_5">
    <path d="
M27 194.4
L194.4 194.4" style="fill:none;stroke:#000000;stroke-linecap:square;stroke-linejoin:miter;"/>
   </g>
   <g id="patch_6">
    <path d="
M27 194.4
L27 21.6" style="fill:none;stroke:#000000;stroke-linecap:square;stroke-linejoin:miter;"/>
   </g>
   <g id="matplotlib.axis_1"/>
   <g id="matplotlib.axis_2"/>
  </g>
 </g>
 <defs>
  <clipPath id="p4c72f1c596">
   <rect height="172.8" width="167.4" x="27.0" y="21.6"/>
  </clipPath>
 </defs>
</svg>
